!!!COM: Johann Sebastian Bach
!!!OTL: Hilf, Herr Jesu, laß gelingen
!!!system-decoration: [(s1,s2,s3,s4)]
**kern
*part1
*staff1
*I'S.
*I"Soprano
*clefG2
*k[b-]
*M3/4
2g
.
.
4g
=2
2dd
.
.
.
4dd
=3
2cc
.
4b-y
.
=4
2a
.
.
4a;
=5
2dd
.
4ff
=6
2ee-
.
4dd
.
=7
2cc
.
4cc
.
=8
2.b-y;
!!LO:LB
=9
2a
.
4b-y
=10
2cc
.
.
4cc
.
=11
2b-y
.
.
4cc
=12
2a
.
.
4a;
=13
2dd
.
.
.
4dd
=14
2cc
.
4b-y
=15
2a
.
.
.
4a
.
=16
2.g;
!!LO:LB
=17
2b-y
.
4b-y
=18
2b-y
.
4b-y
=19
2ee-
.
4dd
=20
2cc
.
.
4cc;
=21
2cc
.
4dd
=22
2b-y
.
4cc
.
=23
2a
.
.
.
4a
.
=24
2g
4g;
==
*-
